!!! OTL: Berkowitz405
!!! Chapter: 1
!!! Section: III
!!! Page: 100
!!! Mode: 
!!! Encoder: DJB
**kern
*staff1
*I"Piano
=1-
*clefF4
*k[f#c#]
*D:
*M6/8
8F#\L
8E\
8D\J
4.A\
=2
8F#\L
8E\
8D\J
4.d\
=3
8B\L
8c#\
8d\J
8A\L
8c#\
8d\J
=4
8G\L
8c#\
8d\J
8F#\L
8E\
8D\J
=5
8F#\L
8E\
8D\J
4.A\
=6
8F#\L
8E\
8D\J
4.d\
=7
8B\L
8c#\
8d\J
8c#\L
8B\
8A\J
=8
!!linebreak:original
8B\L
8F#\
8G#\J
4.A\
=9
8cn\L
8B\
8A\J
8G\L
8F#\
8E\J
=10
8D#\L
8E\
8F#\J
4G\
8E\
=11
8A\L
8G\
8F#\J
8E\L
8D\
8C#\J
=12
8BB/L
8C#/
[8D/J
8D\L]
8E\
8F#\J
=13
8C#\L
8D\
[8E\J
8E\L]
8F#\
8G\J
=14
8A\L
8G#\
8B\J
8A\L
8G#\
8B\J
=15
!!linebreak:original
8A\L
8A\
8A\J
8r
8A\L
8G\J
=16
8F#\L
8E\
8D\J
4.A\
=17
8F#\L
8E\
8D\J
4.d\
=18
4B\
[8A\
8A\]
4G\
=19
8F#\L
8G\
[8A\J
8A\L]
8G\
8F#\J
=20
8E\L
8F#\
[8G\J
8G\L]
8F#\
8E\J
=21
8D\L
8C#\
8E\J
8D\L
8C#\
8E\J
=22
!!linebreak:original
8D\L
8D\
8D\J
4.D\
==
*-
